src/assets/duotone/Information.svg

<svg width="24" height="24" viewBox="0 0 24 24"  xmlns="http://www.w3.org/2000/svg">
<path opacity="0.4" d="M10.7499 2.45031C11.4499 1.86031 12.5799 1.86031 13.2599 2.45031L14.8399 3.80031C15.1399 4.05031 15.7099 4.26031 16.1099 4.26031H17.8099C18.8699 4.26031 19.7399 5.13031 19.7399 6.19031V7.89031C19.7399 8.29031 19.9499 8.85031 20.1999 9.15031L21.5499 10.7303C22.1399 11.4303 22.1399 12.5603 21.5499 13.2403L20.1999 14.8203C19.9499 15.1203 19.7399 15.6803 19.7399 16.0803V17.7803C19.7399 18.8403 18.8699 19.7103 17.8099 19.7103H16.1099C15.7099 19.7103 15.1499 19.9203 14.8499 20.1703L13.2699 21.5203C12.5699 22.1103 11.4399 22.1103 10.7599 21.5203L9.17988 20.1703C8.87988 19.9203 8.30988 19.7103 7.91988 19.7103H6.16988C5.10988 19.7103 4.23988 18.8403 4.23988 17.7803V16.0703C4.23988 15.6803 4.03988 15.1103 3.78988 14.8203L2.43988 13.2303C1.85988 12.5403 1.85988 11.4203 2.43988 10.7303L3.78988 9.14031C4.03988 8.84031 4.23988 8.28031 4.23988 7.89031V6.20031C4.23988 5.14031 5.10988 4.27031 6.16988 4.27031H7.89988C8.29988 4.27031 8.85988 4.06031 9.15988 3.81031L10.7499 2.45031Z" />
<path d="M12 16.8701C11.45 16.8701 11 16.4201 11 15.8701C11 15.3201 11.44 14.8701 12 14.8701C12.55 14.8701 13 15.3201 13 15.8701C13 16.4201 12.56 16.8701 12 16.8701Z" />
<path d="M12 13.7199C11.59 13.7199 11.25 13.3799 11.25 12.9699V8.12988C11.25 7.71988 11.59 7.37988 12 7.37988C12.41 7.37988 12.75 7.71988 12.75 8.12988V12.9599C12.75 13.3799 12.42 13.7199 12 13.7199Z" />
</svg>

<?xml version="1.0" encoding="UTF-8"?>
<svg width="24" height="24" viewBox="0 0 24 24" xmlns="http://www.w3.org/2000/svg">
 <path d="m10.75 2.4503c0.7-0.59 1.83-0.59 2.51 0l1.58 1.35c0.3 0.25 0.87 0.46 1.27 0.46h1.7c1.06 0 1.93 0.87 1.93 1.93v1.7c0 0.4 0.21 0.96 0.46 1.26l1.35 1.58c0.59 0.7 0.59 1.83 0 2.51l-1.35 1.58c-0.25 0.3-0.46 0.86-0.46 1.26v1.7c0 1.06-0.87 1.93-1.93 1.93h-1.7c-0.4 0-0.96 0.21-1.26 0.46l-1.58 1.35c-0.7 0.59-1.83 0.59-2.51 0l-1.58-1.35c-0.3-0.25-0.87-0.46-1.26-0.46h-1.75c-1.06 0-1.93-0.87-1.93-1.93v-1.71c0-0.39-0.2-0.96-0.45-1.25l-1.35-1.59c-0.58-0.69-0.58-1.81 0-2.5l1.35-1.59c0.25-0.3 0.45-0.86 0.45-1.25v-1.69c0-1.06 0.87-1.93 1.93-1.93h1.73c0.4 0 0.96-0.21 1.26-0.46l1.59-1.36z" opacity=".4"/>
 <path d="m12 16.87c-0.55 0-1-0.45-1-1s0.44-1 1-1c0.55 0 1 0.45 1 1s-0.44 1-1 1z"/>
 <path d="m12 13.72c-0.41 0-0.75-0.34-0.75-0.75v-4.84c0-0.41 0.34-0.75 0.75-0.75s0.75 0.34 0.75 0.75v4.83c0 0.42-0.33 0.76-0.75 0.76z"/>
</svg>
